X: 565
T: Absent-minded Man, The
R: jig
M: 6/8
K: Gmajor
(3A/B/c|d2G d2=f|edc B2G|c2e dcB|cAA A2B/c/|
d2G d2=f|edc BAG|Aag fef|gGG G2:|
|:(3A/B/c/|dB/c/d/B/ GBc|dB/c/d/B/ GBd|ec/d/e/c/ Ace|ec/d/e/c/ ABc|
dBd ece|fef gfe|dcB Agf|gGG G2:|

